**kern	**kern
*staff2	*staff1
*clefF4	*clefG2
*k[]	*k[]
*M3/4	*M3/4
=-	=-
8r	4dd
(16GGLL	.
16GJJ)	.
8r	(16ccLK
.	8.bJ)
(16F#LL	.
16GJJ)	.
8r	(16aLK
.	8.gJ)
(16BLL	.
16GJJ)	.
=210	=210
8r	4ee
(16GGLL	.
16GJJ)	.
8r	(16ddLK
.	8.ccJ)
(16cLL	.
16GJJ)	.
8r	(16bLK
.	8.ccJ)
(16F#LL	.
16GJJ)	.
=211	=211
8r	4ffn
(16GGLL	.
16GJJ)	.
8r	(16eeLK
.	8.ddJ)
(16F#LL	.
16GJJ)	.
8r	(16ccLK
.	8.bJ)
(16dLL	.
16GJJ)	.
=212	=212
4E 4e	8r
.	4g 4gg
4C 4c	.
.	4cc 4ccc
4F 4f	.
.	[8a [8aa
=213	=213
4E 4e	8a] 8aa]
.	4g 4gg
4C 4c	.
.	4cc 4ccc
4F 4f	.
.	8a 8aa
=214	=214
(16ELL	8r
16eJJ)	.
8r	(16ggLL
.	16gJJ)
(16DLL	8r
16dJJ)	.
8r	(16ffLL
.	16fJJ)
(16CLL	8r
16cJJ)	.
8r	(16eeLL
.	16eJJ)
=215	=215
(16BLL	8r
16BBJJ)	.
8r	(16dLL
.	16ddJJ)
(16cLL	8r
16CJJ)	.
8r	(16eLL
.	16eeJJ)
(16dLL	8r
16DJJ)	.
8r	(16fLL
.	16ffJJ)
=216	=216
(16ELL	8r
16eJJ)	.
8r	(16ggLL
.	16gJJ)
(16DLL	8r
16dJJ)	.
8r	(16ffLL
.	16fJJ)
(16CLL	8r
16cJJ)	.
8r	(16eeLL
.	16eJJ)
=217	=217
16r	4g 4b 4dd
16GGLL	.
16BB	.
16DJJ	.
8GL	4r
8fJ	.
8eL	4r
8dJ	.
=218	=218
*-	*-
